X:184
T:McDermot's reel
T:All the way to Birmingham
R:Reel
S:Richard Darsie's web page
Z:Transcription, chords:Mike Long
M:C|
L:1/8
K:G
D|"G"DGGF G2Bd|"C"eged edBA|"G"G2GB dGBG|\
"D"ABAG E2D2|"G"DGGF G2Bd|
"C"eged efga|"G"bg~g2 "C"ageg|"D"dBAB "G"G3:|\
|:d|\
"G"dggf g2ga|"C"bgag edBA|
"G"G3B dGBG|\
"D"ABAG E2D2|"G"dggf g2ga|"C"bgag edBA|\
"G"G2GB dGBG|"D"AGFA "G"G3:|
